X:1
T:List! for the breeze - Goss
T:#
%%score [ 1 { 2 | 3 } 4 ] { ( 5 6 ) | ( 7 8 ) }
L:1/8
Q:1/4=84
M:3/4
K:F
V:1 treble nm="Alto" snm="A"
V:2 treble-8 nm="Tenor I" snm="T"
V:3 treble-8 
V:4 bass nm="Bass" snm="B"
V:5 treble nm="Midi_20"
V:6 treble 
V:7 bass 
V:8 bass 
V:1
"^List! for the breeze""^Words from the Spanish""^John Goss\n(1800-1880)""^Allegretto grazioso"!mf! C2 z2 A,>B, | %1
w: List! for the|
 (C2 F2) F2 |{FG} A4 (G>E) | (F2 C2) (ED) | (C3 F) (EG) |[M:3/4] F4 z2 | B2 z2 A>A | %7
w: breeze * on|* se\- *|rene, * on *|wing * se\- *|rene,|list! for the|
 (G2 E2) (F3/2G/4A/4) | (C2 E2) (F>G) | (F2 E2) G2- | G2 C2 D2 | (E3 F) (G{=B}A) | G6- | %13
w: breeze * on * *|wing * se\- *|rene, * Thro'|* the light|fo\- * liage *|sails,|
"^cresc." G2 F>E (AG) |!>(! (G2 FE) (F!>)!D) |!p! (GEc=B) A>G |!>(! (GF!>)! E2) TD2 ||1 C4 z2 :|2 %18
w: * thro' the light *|fo\- * * liage *|sails, * * * thro' the|fo\- * * liage|sails;|
 C2 z2 z2 ||!mf! !>!F2 E2 (D>C) | (CDEF) (GA) | (c2 B2) A2 | (A2 G2) z2 | %23
w: sails;|Hid- den a\- *|midst * * * the *|fo\- * rest|green *|
"^dolce" (F>E (3GFE (3ED)C | (C2- (3CDE) (3(FG)A | (c2 B2) A2 | (A2 G2) z2 | z2!pp! (C>A) (3(GF)E | %28
w: War- * * * * * * ble,|war\- * * * ble * the|night\- * in-|gales, *|war\- * ble * the|
 F>C C2 z2 | z2 (3(CFA) (3(AG)E | F>C C2 z2 |!f! F4 E>D | ^C4 D2 | E4 (GF) |"^dim." E6- | %35
w: night- in- gales,|war- * * ble * the|night- in- gales,|Hid- den a-|midst the|fo- rest *|green|
!p! E2 (3(EFG (3GA)B | (A2- (3ABA (3GAG | F2- (3FGF (3EFE | (3D)AG F2 (3(EFG) | %39
w: * war\- * * * * ble,|war\- * * * * * *||* ble the night- in\- * *|
 F2 (3z (CD (3EF)"^cresc."G | (A2- (3ABA (3GAG | F2- (3FGF (3EFE | (3D)AG F2 (3(EFG) | F2 z2 z2 | %44
w: gales, war\- * * * ble,|war\- * * * * * *||* ble the night- in\- * *|gales,|
 z2!p! (3(GFE) (3(ED)C | C>F F2!f!"^Slower"[Q:1/4=72] (3AGF | c4 (3(EFG) | (G2 F4) |] %48
w: war\- * * ble * the|night- in- gales, war- ble the|night- in\- * *|gales. *|
V:2
 z6 | z2 z2!mf! d2 | (c2 f2) c2 | c4 B2 | A4 (GE) |[M:3/4][K:treble-8] Fc f3 e | (defg) c>c | %7
w: |On|wing * se-|rene, on|wing se\- *|rene, on wing se-|rene, * * * for the|
 c4 c2 | B4 (A>B) | (A2 G2) z2 | G3 G =B2 | (c3 d) (ef) | (e2 c2"^cresc." d2 | e2) z2 c2 | %14
w: breeze on|wing se\- *|rene, *|Thro' the light|fo\- * liage *|sails, * *|* the|
!>(! (e2 dc) (d!>)!=B) |!p! c2 z2 c>c |!>(! (ed!>)! c2) =B2 ||1 c4 z2 :|2 (c4 =B/c/d/c/) || %19
w: fo\- * * liage *|sails, thro' the|fo\- * * liage|sails;|sails; * * * *|
!mf! !>!_B4 B>B | A4 A2 | (G2 g2) f2 | (f2 e2) z2 |!p! G4 G2 | F4 A>A | (3(Gce g2) (f>c) | c4 z2 | %27
w: Hid- den a-|midst the|fo\- * rest|green *|War- ble,|war- ble the|night\- * * * in\- *|gales,|
!pp! (c6- | c2 (3cfe (3fe)d | c4 c>c | (c2- (3cfe (3gf)d | c2!f! c2 B>B | (A3 G) F2 | (E2 e2) d2 | %34
w: war\-|* * * * * * ble,|war- ble the|night\- * * * * * in-|gales, Hid- den a-|midst * the|fo\- * rest|
"^dim." ^c6- |!p! c2 (=c4- | (3cfe f2 e2 | (3fc=B c2 !>!^c2 | (3d)=cB A2 (3(GAB) | A2 (c4- | %40
w: green|* War\-|||* ble the night- in\- * *|gales, war\-|
"^cresc." (3cfe f2 e2 | (3fc=B c2 !>!^c2 | (3d)=cB A2 (3(GAB) | A2!p! c2 c>c | c4- c>c | c2 z2 z2 | %46
w: ||* ble the night- in\- * *|gales, war- ble the|night\- * in-|gales,|
 z z/!f! E/ E2 c2 | c6 |] %48
w: the night- in-|gales.|
V:3
!mf! A2 z2 F>G | A4 B2 | A4 B2 | A4 F2 | (FA c3) B |[M:3/4][K:treble-8] A3 F GA | (Bcde) f>c | %7
w: List! for the|breeze on|wing se-|rene, on|wing * * se-|rene, in wing se-|rene, * * * for the|
 (B2 G2) F2 | E>c c7/2 c/ | c4 z2 | G3 G G2 | G2 G2 z2 | G3 G"^cresc." =B2 | c4 FG | %14
w: breeze * on|wing, on wing se-|rene,|Thro' the light|fo- liage,|thro' the light|fo- liage, the|
!>(! A4!>)! G2 |!p! G2 z2 G>G |!>(! (A2 G3)!>)! F ||1 (E3 Gc_B) :|2 E2 z2 z2 ||!mf! !>!G4 G>G | %20
w: fo- liage|sails, thro' the|fo\- * liage|sails; * * *|sails;|Hid- den a-|
 F4 F2 | E4 F2 | c2!p! (Tx7/2{=Bc} x/ | _B4) B2 | A4 F>F | (E2- (3EFG (3Ac)f | (f2 e2) z2 | %27
w: midst the|fo- rest|green|* ble,|war- ble the|night\- * * * * * in-|gales, *|
!pp! (A4 B2 | A2- (3Ad^c (3d=c)B | A4 B>B | (A2- (3Ad^c (3ed)B | A2!f! A2 G>F | E4 D2 | A>A A2 A2 | %34
w: war\- *|* * * * * * ble,|war- ble the|night\- * * * * * in-|gales, Hid- den a-|midst, a-|midst the fo- rest|
"^dim." A6- |!p! A2 (A2 !>!B>)E | (F2 (3cdc (3BcB | (3:2:2A2 ^G A2 !>!=G2) | (3:2:2F2 d c3 c | %39
w: green|* War\- * ble,|war\- * * * * * *||ble the night- in-|
 c2 (3z (c=B (3_BA)"^cresc."G | (F2 (3cdc (3BcB | (3:2:2A2 ^G A2 !>!=G2) | (3:2:2F2 d c3 c | %43
w: gales, war\- * * * ble,|war\- * * * * * *||ble the night- in-|
 c2 z2 z2 | z z/!p! B/ B2- B>B | A2 z2 z2 | z z/!f! G/ G2- (3G (AB) | (B2 A4) |] %48
w: gales,|the night\- * in-|gales,|the night\- * in\- *|gales. *|
V:4
 z6 | z2 z2!mf! F,2 | F,4 F,2 | F,4 B,,2 | C,4 C,2 |[M:3/4] F,6- | F,4 F,>F, | (E,2 B,2) A,2 | %8
w: |On|wing se-|rene, on|wing se-|rene,|* for the|breeze * on|
 G,4 F,2 | C,4 z2 | E,3 E, G,2 | C2 C,2 z2 | C,2 E,2"^cresc." G,2 | (C=B,A,G,F,E, | %14
w: wing se-|rene,|Thro' the light|fo- liage,|thro' the light|fo\- * * * * *|
!>(! D,4) (G,!>)!F,) |!p! E,2 z2 E,>E, |!>(! (F,2!>)! G,2) G,,2 ||1 C,4 z2 :|2 C,2 z2 z2 || %19
w: * liage *|sails, thro' the|fo\- * liage|sails;|sails;|
!mf! !>!C,4 C,>C, | C,4 C,2 | C,4 C,2 | C,4 z2 |!p! C,6- | C,4 C,>C, | (C,2- (3C,D,E,) (F,>A,) | %26
w: Hid- den a-|midst the|fo- rest|green,|War\-|* ble the|night\- * * * in\- *|
 C2 (3(C,E,G, (3B,A,)G, |!pp! F,6- | F,4 (B,,>D,) | F,4 F,>F, | F,4 (B,,>D,) | %31
w: gales, war\- * * * * ble,|war\-|* ble, *|war- ble the|night- in\- *|
 F,2!f! F,,2 G,,>G,, | A,,4 D,2 | ^C,4 D,2 | A,,>"^dim."A, E,2 ^C,2 |!p! (A,,4 G,,2) | (F,,6- | %37
w: gale, Hid- den a-|midst the|fo- rest|green, the fo- rest|green *|War\-|
 F,,4 !>!A,,2 | (3B,,)A,,B,, C,3 C, | F,2 z2 z2 | (F,,6- |"^cresc." F,,4 !>!A,,2 | %42
w: |* ble the night- in-|gales,|war\-||
 (3B,,)A,,B,, C,3 C, | F,2 z2 z2 | z z/!p! C,/ C,2- C,>C, | F,2 z2 z2 | z z/!f! C,/ C,2- C,>C, | %47
w: * ble the night- in-|gales,|the night\- * in|gales,|the night\- * in-|
 F,,6 |] %48
w: gales.|
V:5
 C2 z2 A,>B, | C2 F2 [DF]2 |{FG} A4 G>E | F2 C2 ED | C3 FEG |[M:3/4] F2 F3 E | %6
 D[CE][DF][EG] [FA]>[CA] | G2 E2 F3/2G/4A/4 | C2 E2 F>G | F2 E2 G2- | G2 C2 [=B,D]2 | %11
 [CE]3 [DF][EG]{=B}[FA] | G6- | [EG]2 F>EAG | [EG]2 [DF][CE][DF][=B,D] |!p! GEc=B[CA]>[CG] | %16
!>(! [EG][DF]!>)! [CE]2 [=B,D]2 ||1 C4 z2 :|2 C4 =B,/C/D/C/ ||!mf! F2 E2 D>C | CDEFGA | %21
 c2 [GB]2 [FA]2 | [FA]2 [EG]2 z2 | F>E (3GFE (3EDC | C2- (3CDE (3FGA | c2 [GB]2 [FA]2 | %26
 [FA]2 [EG]2 z2 | x2 C>A (3GFE | A,2- (3[A,C][DF][^CE] (3[DF][=CE][B,D] | C2 (3CFA(3AGE | %30
 A,2- (3[A,C][DF][^CE] (3[EG][DF][B,D] | F4 [G,B,E]>[F,B,D] | ^C4 [F,D]2 | E4 GF | [A,^CE]6- | %35
!p! [A,CE]2 (3EFG (3GAB | A2- (3ABA(3GAG | F2- (3FGF(3EFE | (3D[=CA][DG] F2 (3EFG | %39
 [CF]2 (3z CD(3EFG | A2- (3ABA (3GAG | F2- (3FGF (3EFE | (3D[=CA][DG] F2 (3(EFG) | %43
 [CF]2!p! C2 C>C | z2!p! (3GFE (3EDC | C>F F2!f!"^Slower" (3AGF | c4 (3EFG | [B,G]2 [A,F]4 |] %48
V:6
 x6 | x6 | C2 F2 C2 | C4 B,2 | A,2 C3 B, |[M:3/4] FC x2 x2 | x6 | C4 C2 | C2 C4 | C4 x2 | x6 | x6 | %12
 E2 C2 D2 | C4 C2 | x6 | C2 x2 x2 | x6 ||1 x6 :|2 x6 || x6 | x6 | x6 | x6 | x6 | x6 | %25
 (3G,CE x2 x2 | x6 | C2 C4- | [CF]>C x2 x2 | x2 C2 C2 | [CF]>C x2 x2 | [A,C]2!f! [A,C]2 x2 | x6 | %33
 x6 | x6 | x2 =C4- | (3CFE F2 E2 | (3FC=B, C2 ^C2 | x2 C4 | x2 C4- | (3CFE F2 E2 | (3FC=B, C2 ^C2 | %42
 x2 C4 | x6 | C4- C>C | C2 x2 x2 | x4 C2 | C6 |] %48
V:7
 A,2 z2 F,>G, | A,4 [F,B,]2 | [F,A,]4 [F,B,]2 | [F,A,]4 [B,,F,]2 | F,2 A,2 G,E, | %5
[M:3/4] A,3 F,G,A, | B,2 x2 x2 | x6 | B,4 A,>B, | A,2 G,2 z2 | [E,G,]3 [E,G,] G,2 | %11
 G,2 [C,G,]2 z2 | G,3 G,"^cresc." [G,=B,]2 | C=B,A,G,F,[E,G,] |!>(! [D,A,]4 G,2!>)! | %15
 [E,G,]2 z2 [E,G,]>[E,G,] | [F,A,]2 G,3 F, ||1 E,3 G,C_B, :|2 [C,E,]2 z2 z2 || %19
 !>![C,G,_B,]4 [C,G,B,]2 | [C,F,A,]4 [C,F,A,]2 | [C,E,]4 [C,F,]2 | C2!p! Tx7/2 x/ | %23
 [G,_B,]4 [G,B,]2 | x6 | x2 x2 (3:2:2A, C2 | C4 x2 | A,4 B,2 | x6 | x6 | x6 | x6 | A,3 G, F,2 | %33
 A,>A, A,2 A,2 | x6 | x2 A,2 B,>E, |!ped! F,2 (3CDC (3B,CB, | %37
!ped-up! (3:2:2A,2 ^G, A,2 !>![A,,=G,]2 | (3:2:2F,2 B, A,2 (3G,A,B, | %39
 [F,A,]2 (3z z =B, (3_B,A,"^cresc."G, |!ped! F,2 (3CDC (3B,CB, |!ped-up! (3:2:2A,2 ^G, A,2 x2 | %42
 (3:2:2F,2 B, A,2 (3G,A,B, | x6 | x6 | x6 | x2 G,2- (3G,A,B, | x6 |] %48
V:8
 x6 | x6 | x6 | x6 | C,4 C,2 |[M:3/4] F,6- | F,4 [F,C]>F, | [E,B,]2 [G,B,]2 [F,A,]2 | %8
 [E,G,]2 G,2 F,2 | C,4 x2 | x6 | x6 | C,2 E,2 x2 | x6 | x4 G,F, | x6 | x2 G,2 G,,2 ||1 C,4 x2 :|2 %18
 x6 || x6 | x6 | x2 x4 |{=B,C} C,4 x2 | C,6- | [C,F,A,]4 [C,F,A,]2 | %25
 [C,E,]2- (3[C,E,][D,F,][E,G,] F,>A, | C2 (3C,E,G, (3B,A,G, | F,6- | F,4 B,,>D, | [F,A,]4 [F,B,]2 | %30
 F,4 B,,>D, | F,2 F,,2 G,,2 | [A,,E,]4 D,2 | ^C,4 D,2 | A,,>A,"^dim." E,2 ^C,2 | A,,4 G,,2 | %36
 F,,6- | F,,4 x2 | (3B,,A,,B,, C,4 | x6 | F,,6- | F,,4 [A,,!courtesy!=G,]2 | (3B,,A,,B,, C,4 | %43
 [F,A,]2 z2 z2 | z z/ [C,B,]/ [C,B,]2- [C,B,]>[C,B,] | [F,A,]2 z2 z2 | %46
 z z/ [C,E,G,]/ [C,-E,]2 C,>C, | F,,6 |] %48

